icons/rows-16.svg

<svg xmlns="http://www.w3.org/2000/svg" width="16" height="16" viewBox="0 0 16 16">
  <defs/>
  <path d="M16,10.75 L16,13.25 C16,14.216 15.216,15 14.25,15 L1.75,15 C0.784,15 0,14.216 0,13.25 L0,10.75 C0,9.784 0.784,9 1.75,9 L14.25,9 C15.216,9 16,9.784 16,10.75 Z M16,2.75 L16,5.25 C16,6.216 15.216,7 14.25,7 L1.75,7 C0.784,7 0,6.216 0,5.25 L0,2.75 C0,1.784 0.784,1 1.75,1 L14.25,1 C15.216,1 16,1.784 16,2.75 Z M14.25,2.5 L1.75,2.5 C1.612,2.5 1.5,2.612 1.5,2.75 L1.5,5.25 C1.5,5.388 1.612,5.5 1.75,5.5 L14.25,5.5 C14.388,5.5 14.5,5.388 14.5,5.25 L14.5,2.75 C14.5,2.612 14.388,2.5 14.25,2.5 Z M14.25,10.5 L1.75,10.5 C1.612,10.5 1.5,10.612 1.5,10.75 L1.5,13.25 C1.5,13.388 1.612,13.5 1.75,13.5 L14.25,13.5 C14.388,13.5 14.5,13.388 14.5,13.25 L14.5,10.75 C14.5,10.612 14.388,10.5 14.25,10.5 Z"/>
</svg>

<svg xmlns="http://www.w3.org/2000/svg" width="16" height="16" viewBox="0 0 16 16"><path d="M16 10.75v2.5A1.75 1.75 0 0114.25 15H1.75A1.75 1.75 0 010 13.25v-2.5C0 9.784.784 9 1.75 9h12.5c.966 0 1.75.784 1.75 1.75zm0-8v2.5A1.75 1.75 0 0114.25 7H1.75A1.75 1.75 0 010 5.25v-2.5C0 1.784.784 1 1.75 1h12.5c.966 0 1.75.784 1.75 1.75zm-1.75-.25H1.75a.25.25 0 00-.25.25v2.5c0 .138.112.25.25.25h12.5a.25.25 0 00.25-.25v-2.5a.25.25 0 00-.25-.25zm0 8H1.75a.25.25 0 00-.25.25v2.5c0 .138.112.25.25.25h12.5a.25.25 0 00.25-.25v-2.5a.25.25 0 00-.25-.25z"/></svg>
